assets/images/NumeneraLogo.svg

<?xml version="1.0" encoding="UTF-8" standalone="no"?>
<svg
   width="100%"
   height="100%"
   viewBox="0 0 929 156"
   version="1.1"
   xml:space="preserve"
   style="fill-rule:evenodd;clip-rule:evenodd;stroke-linejoin:round;stroke-miterlimit:2;"
   id="svg9"
   sodipodi:docname="NumeneraLogo.svg"
   inkscape:version="1.3.2 (091e20e, 2023-11-25)"
   xmlns:inkscape="http://www.inkscape.org/namespaces/inkscape"
   xmlns:sodipodi="http://sodipodi.sourceforge.net/DTD/sodipodi-0.dtd"
   xmlns:xlink="http://www.w3.org/1999/xlink"
   xmlns="http://www.w3.org/2000/svg"
   xmlns:svg="http://www.w3.org/2000/svg"
   xmlns:serif="http://www.serif.com/"><defs
   id="defs9"><linearGradient
     id="linearGradient2"
     inkscape:collect="always"><stop
       style="stop-color:#000000;stop-opacity:1;"
       offset="0"
       id="stop3" /><stop
       style="stop-color:#000000;stop-opacity:0;"
       offset="1"
       id="stop4" /></linearGradient><linearGradient
     inkscape:collect="always"
     xlink:href="#linearGradient2"
     id="linearGradient4"
     x1="-0.348022"
     y1="410.9456"
     x2="1113.0977"
     y2="410.9456"
     gradientUnits="userSpaceOnUse" /><filter
     inkscape:collect="always"
     style="color-interpolation-filters:sRGB"
     id="filter1"
     x="-0.0030602524"
     y="-0.01828482"
     width="1.0061205"
     height="1.0365685"><feGaussianBlur
       inkscape:collect="always"
       stdDeviation="0.97507593"
       id="feGaussianBlur1" /></filter></defs><sodipodi:namedview
   id="namedview9"
   pagecolor="#ffffff"
   bordercolor="#000000"
   borderopacity="0.25"
   inkscape:showpageshadow="2"
   inkscape:pageopacity="0.0"
   inkscape:pagecheckerboard="0"
   inkscape:deskcolor="#d1d1d1"
   inkscape:zoom="0.93110872"
   inkscape:cx="464.5"
   inkscape:cy="78.401156"
   inkscape:window-width="1392"
   inkscape:window-height="935"
   inkscape:window-x="0"
   inkscape:window-y="25"
   inkscape:window-maximized="0"
   inkscape:current-layer="g9" />
    <g
   transform="matrix(1,0,0,1,-55.5226,-332.262)"
   id="g9"
   style="fill:#ffffff">
        <g
   id="Numenera-Curves"
   serif:id="Numenera Curves"
   transform="translate(-36.8084,-1.10105)"
   style="mix-blend-mode:normal;fill:#ffffff;fill-opacity:1;stroke:#000000;stroke-width:1;stroke-dasharray:none;stroke-opacity:1;filter:url(#filter1)">
            <g
   transform="matrix(185.358,0,0,185.358,75.4634,452.111)"
   id="g1"
   style="fill:#ffffff;fill-opacity:1;stroke:#000000;stroke-width:0.00539497;stroke-dasharray:none;stroke-opacity:1">
                <path
   d="m 0.091,-0.018 c 0.013,0 0.019,-0.006 0.019,-0.018 V -0.49 c 0,-0.012 -0.006,-0.018 -0.019,-0.018 v -0.018 h 0.171 v 0.018 c -0.005,0 -0.008,0.003 -0.008,0.01 0,0.005 0.007,0.015 0.02,0.028 l 0.287,0.298 V -0.49 c 0,-0.012 -0.009,-0.018 -0.026,-0.018 v -0.018 h 0.151 v 0.018 c -0.013,0 -0.019,0.006 -0.019,0.018 v 0.454 c 0,0.012 0.006,0.018 0.019,0.018 L 0.985,0.197 0.524,0 v -0.018 c 0.009,0 0.013,-0.003 0.013,-0.009 0,-0.005 -0.005,-0.012 -0.016,-0.023 L 0.216,-0.368 v 0.332 c 0,0.012 0.008,0.018 0.023,0.018 V 0 H 0.091 Z"
   style="fill:#ffffff;fill-opacity:1;fill-rule:nonzero;stroke:#000000;stroke-width:0.00539497;stroke-dasharray:none;stroke-opacity:1"
   id="path1" />
            </g>
            <g
   transform="matrix(185.358,0,0,185.358,219.672,452.111)"
   id="g2"
   style="fill:#ffffff;fill-opacity:1;stroke:#000000;stroke-width:0.00539497;stroke-dasharray:none;stroke-opacity:1">
                <path
   d="m 0.217,-0.422 c -0.015,0 -0.022,0.005 -0.022,0.015 v 0.229 c 0,0.032 0.012,0.058 0.035,0.077 0.023,0.019 0.059,0.029 0.107,0.029 0.048,0 0.084,-0.01 0.107,-0.029 0.023,-0.019 0.035,-0.045 0.035,-0.077 v -0.229 c 0,-0.01 -0.008,-0.015 -0.025,-0.015 V -0.44 h 0.139 v 0.018 c -0.015,0 -0.022,0.005 -0.022,0.015 v 0.253 c 0,0.021 -0.005,0.04 -0.014,0.059 C 0.548,-0.076 0.534,-0.059 0.515,-0.044 0.496,-0.029 0.471,-0.018 0.442,-0.01 0.412,-0.001 0.377,0.003 0.337,0.003 0.297,0.003 0.262,-0.001 0.233,-0.01 0.203,-0.018 0.179,-0.029 0.16,-0.044 0.14,-0.059 0.126,-0.076 0.117,-0.095 0.108,-0.114 0.103,-0.133 0.103,-0.154 V -0.407 C 0.103,-0.412 0.101,-0.416 0.097,-0.419 0.093,-0.421 0.085,-0.422 0.074,-0.422 V -0.44 h 0.143 z"
   style="fill:#ffffff;fill-opacity:1;fill-rule:nonzero;stroke:#000000;stroke-width:0.00539497;stroke-dasharray:none;stroke-opacity:1"
   id="path2" />
            </g>
            <g
   transform="matrix(185.358,0,0,185.358,343.306,452.111)"
   id="g3"
   style="fill:#ffffff;fill-opacity:1;stroke:#000000;stroke-width:0.00539497;stroke-dasharray:none;stroke-opacity:1">
                <path
   d="M 0.093,-0.018 C 0.096,-0.019 0.099,-0.02 0.102,-0.022 0.104,-0.024 0.105,-0.029 0.105,-0.036 V -0.402 C 0.105,-0.411 0.104,-0.417 0.103,-0.419 0.101,-0.421 0.098,-0.422 0.093,-0.422 V -0.44 h 0.139 v 0.018 c -0.007,0 -0.01,0.003 -0.01,0.009 0,0.003 0.001,0.006 0.004,0.01 0.002,0.005 0.005,0.011 0.01,0.019 l 0.122,0.225 0.123,-0.224 c 0.005,-0.008 0.008,-0.015 0.011,-0.02 0.003,-0.005 0.004,-0.008 0.004,-0.01 0,-0.006 -0.003,-0.009 -0.008,-0.009 V -0.44 h 0.141 v 0.018 c -0.003,0 -0.006,0.001 -0.009,0.002 -0.004,0.002 -0.005,0.006 -0.005,0.011 v 0.376 c 0,0.005 0.001,0.009 0.005,0.011 0.003,0.003 0.006,0.004 0.009,0.004 V 0 H 0.513 v -0.018 c 0.014,0 0.02,-0.005 0.018,-0.015 V -0.314 H 0.529 L 0.394,-0.031 0.453,0.076 0.349,-0.027 0.19,-0.314 H 0.191 0.189 v 0.281 c 0,0.01 0.006,0.015 0.017,0.015 V 0 H 0.093 Z"
   style="fill:#ffffff;fill-opacity:1;fill-rule:nonzero;stroke:#000000;stroke-width:0.00539497;stroke-dasharray:none;stroke-opacity:1"
   id="path3" />
            </g>
            <g
   transform="matrix(185.358,0,0,185.358,477.134,452.111)"
   id="g4"
   style="fill:#ffffff;fill-opacity:1;stroke:#000000;stroke-width:0.00539497;stroke-dasharray:none;stroke-opacity:1">
                <path
   d="m 0.468,-0.347 c 0,-0.013 -0.01,-0.019 -0.031,-0.019 H 0.193 v 0.1 h 0.154 c 0.011,0 0.02,-0.001 0.025,-0.003 C 0.377,-0.27 0.38,-0.275 0.38,-0.282 h 0.018 v 0.106 H 0.378 C 0.38,-0.183 0.377,-0.188 0.37,-0.19 0.363,-0.191 0.352,-0.192 0.339,-0.192 H 0.193 v 0.118 h 0.256 c 0.008,0 0.015,-0.002 0.02,-0.006 0.005,-0.003 0.008,-0.008 0.008,-0.014 H 0.495 V 0.011 H 0.477 C 0.477,0.005 0.474,0.002 0.469,0.001 0.464,0 0.457,0 0.449,0 H 0.082 v -0.018 c 0.003,0 0.007,-0.001 0.01,-0.004 0.003,-0.002 0.005,-0.006 0.005,-0.011 V -0.407 C 0.097,-0.412 0.095,-0.416 0.092,-0.419 0.089,-0.421 0.085,-0.422 0.082,-0.422 V -0.44 h 0.355 c 0.021,0 0.031,-0.006 0.031,-0.018 h 0.018 v 0.111 z"
   style="fill:#ffffff;fill-opacity:1;fill-rule:nonzero;stroke:#000000;stroke-width:0.00539497;stroke-dasharray:none;stroke-opacity:1"
   id="path4" />
            </g>
            <g
   transform="matrix(185.358,0,0,185.358,580.193,452.111)"
   id="g5"
   style="fill:#ffffff;fill-opacity:1;stroke:#000000;stroke-width:0.00539497;stroke-dasharray:none;stroke-opacity:1">
                <path
   d="m 0.081,-0.018 c 0.012,0 0.018,-0.005 0.018,-0.015 v -0.374 c 0,-0.01 -0.006,-0.015 -0.018,-0.015 l -0.047,-0.079 0.127,0.051 0.067,0.01 v 0.018 c -0.005,0.001 -0.007,0.002 -0.007,0.005 0,0.003 0.007,0.012 0.022,0.027 l 0.24,0.254 v -0.271 c 0,-0.01 -0.007,-0.015 -0.02,-0.015 V -0.44 h 0.122 v 0.018 c -0.012,0 -0.018,0.005 -0.018,0.015 v 0.374 c 0,0.01 0.006,0.015 0.018,0.015 V 0 h -0.13 v -0.018 c 0.005,0 0.007,-0.002 0.007,-0.005 0,-0.003 -0.003,-0.007 -0.009,-0.014 C 0.446,-0.044 0.439,-0.051 0.431,-0.06 L 0.183,-0.324 v 0.291 c 0,0.01 0.007,0.015 0.021,0.015 V 0 H 0.081 Z"
   style="fill:#ffffff;fill-opacity:1;fill-rule:nonzero;stroke:#000000;stroke-width:0.00539497;stroke-dasharray:none;stroke-opacity:1"
   id="path5" />
            </g>
            <g
   transform="matrix(185.358,0,0,185.358,703.827,452.111)"
   id="g6"
   style="fill:#ffffff;fill-opacity:1;stroke:#000000;stroke-width:0.00539497;stroke-dasharray:none;stroke-opacity:1">
                <path
   d="m 0.277,-0.508 -0.109,0.023 0.086,-0.093 0.093,-0.063 0.095,0.009 -0.088,0.065 z m 0.191,0.161 c 0,-0.013 -0.01,-0.019 -0.031,-0.019 H 0.193 v 0.1 h 0.154 c 0.011,0 0.02,-0.001 0.025,-0.003 C 0.377,-0.27 0.38,-0.275 0.38,-0.282 h 0.018 v 0.106 H 0.378 C 0.38,-0.183 0.377,-0.188 0.37,-0.19 0.363,-0.191 0.352,-0.192 0.339,-0.192 H 0.193 v 0.118 h 0.256 c 0.008,0 0.015,-0.002 0.02,-0.006 0.005,-0.003 0.008,-0.008 0.008,-0.014 H 0.495 V 0.011 H 0.477 C 0.477,0.005 0.474,0.002 0.469,0.001 0.464,0 0.457,0 0.449,0 H 0.082 v -0.018 c 0.003,0 0.007,-0.001 0.01,-0.004 0.003,-0.002 0.005,-0.006 0.005,-0.011 V -0.407 C 0.097,-0.412 0.095,-0.416 0.092,-0.419 0.089,-0.421 0.085,-0.422 0.082,-0.422 V -0.44 h 0.355 c 0.021,0 0.031,-0.006 0.031,-0.018 h 0.018 v 0.111 z"
   style="fill:#ffffff;fill-opacity:1;fill-rule:nonzero;stroke:#000000;stroke-width:0.00539497;stroke-dasharray:none;stroke-opacity:1"
   id="path6" />
            </g>
            <g
   transform="matrix(185.358,0,0,185.358,806.886,452.111)"
   id="g7"
   style="fill:#ffffff;fill-opacity:1;stroke:#000000;stroke-width:0.00539497;stroke-dasharray:none;stroke-opacity:1">
                <path
   d="m 0.352,-0.25 c 0.065,0 0.098,-0.021 0.098,-0.062 0,-0.017 -0.008,-0.03 -0.023,-0.04 C 0.411,-0.361 0.386,-0.366 0.352,-0.366 H 0.194 v 0.116 z m 0.002,-0.19 c 0.059,0 0.106,0.01 0.139,0.029 0.033,0.02 0.05,0.054 0.05,0.101 0,0.018 -0.003,0.034 -0.01,0.048 -0.007,0.014 -0.015,0.026 -0.026,0.036 -0.011,0.011 -0.024,0.019 -0.037,0.025 -0.013,0.007 -0.027,0.012 -0.041,0.015 l 0.098,0.143 c 0.005,0.007 0.011,0.013 0.018,0.016 0.006,0.004 0.013,0.007 0.02,0.009 L 0.741,0.104 0.412,0 v -0.018 c 0.009,0 0.013,-0.003 0.013,-0.009 0,-0.007 -0.005,-0.017 -0.015,-0.031 L 0.331,-0.176 H 0.192 v 0.143 c 0,0.005 0.002,0.009 0.007,0.011 0.004,0.003 0.008,0.004 0.012,0.004 V 0 H 0.078 v -0.018 c 0.012,0 0.018,-0.005 0.018,-0.015 v -0.374 c 0,-0.01 -0.006,-0.015 -0.018,-0.015 V -0.44 Z"
   style="fill:#ffffff;fill-opacity:1;fill-rule:nonzero;stroke:#000000;stroke-width:0.00539497;stroke-dasharray:none;stroke-opacity:1"
   id="path7" />
            </g>
            <g
   transform="matrix(185.358,0,0,185.358,920.14,452.111)"
   id="g8"
   style="fill:#ffffff;fill-opacity:1;stroke:#000000;stroke-width:0.00539497;stroke-dasharray:none;stroke-opacity:1">
                <path
   d="M 0.349,-0.184 0.268,-0.352 0.197,-0.184 Z M 0.015,-0.018 C 0.023,-0.019 0.029,-0.023 0.035,-0.03 0.04,-0.036 0.043,-0.042 0.046,-0.047 L 0.195,-0.372 C 0.199,-0.381 0.202,-0.389 0.205,-0.395 0.207,-0.4 0.208,-0.406 0.208,-0.411 0.208,-0.415 0.207,-0.418 0.206,-0.419 0.204,-0.42 0.202,-0.421 0.2,-0.422 V -0.44 h 0.151 v 0.018 c -0.002,0.001 -0.004,0.002 -0.006,0.003 -0.003,0.001 -0.004,0.003 -0.004,0.008 0,0.004 0.002,0.009 0.005,0.014 0.003,0.006 0.006,0.013 0.009,0.02 l 0.162,0.34 c 0.003,0.006 0.007,0.01 0.011,0.013 0.004,0.003 0.008,0.005 0.013,0.006 V 0 H 0.399 v -0.015 c 0.003,0 0.007,-0.001 0.011,-0.003 C 0.413,-0.02 0.415,-0.024 0.415,-0.029 0.415,-0.033 0.414,-0.037 0.413,-0.04 0.412,-0.043 0.41,-0.048 0.408,-0.053 L 0.381,-0.11 H 0.167 l -0.028,0.054 c -0.003,0.005 -0.005,0.01 -0.006,0.014 -0.002,0.005 -0.003,0.009 -0.003,0.012 0,0.005 0.002,0.009 0.005,0.01 0.003,0.001 0.008,0.002 0.014,0.002 V 0 H 0.015 Z"
   style="fill:#ffffff;fill-opacity:1;fill-rule:nonzero;stroke:#000000;stroke-width:0.00539497;stroke-dasharray:none;stroke-opacity:1"
   id="path8" />
            </g>
        </g>
    </g>
</svg>

<?xml version="1.0" encoding="UTF-8" standalone="no"?>
<svg
   width="100%"
   height="100%"
   viewBox="0 0 929 156"
   version="1.1"
   xml:space="preserve"
   style="fill-rule:evenodd;clip-rule:evenodd;stroke-linejoin:round;stroke-miterlimit:2;"
   id="svg9"
   sodipodi:docname="NumeneraLogoDark.svg"
   inkscape:version="1.3.2 (091e20e, 2023-11-25)"
   xmlns:inkscape="http://www.inkscape.org/namespaces/inkscape"
   xmlns:sodipodi="http://sodipodi.sourceforge.net/DTD/sodipodi-0.dtd"
   xmlns="http://www.w3.org/2000/svg"
   xmlns:svg="http://www.w3.org/2000/svg"
   xmlns:serif="http://www.serif.com/"><defs
   id="defs9" /><sodipodi:namedview
   id="namedview9"
   pagecolor="#ffffff"
   bordercolor="#000000"
   borderopacity="0.25"
   inkscape:showpageshadow="2"
   inkscape:pageopacity="0.0"
   inkscape:pagecheckerboard="0"
   inkscape:deskcolor="#d1d1d1"
   inkscape:zoom="0.93110872"
   inkscape:cx="464.5"
   inkscape:cy="78.401156"
   inkscape:window-width="1392"
   inkscape:window-height="935"
   inkscape:window-x="0"
   inkscape:window-y="25"
   inkscape:window-maximized="0"
   inkscape:current-layer="svg9" />
    <g
   transform="matrix(1,0,0,1,-55.5226,-332.262)"
   id="g9"
   style="fill:#ffffff">
        <g
   id="Numenera-Curves"
   serif:id="Numenera Curves"
   transform="matrix(1,0,0,1,-36.8084,-1.10105)"
   style="fill:#ffffff">
            <g
   transform="matrix(185.358,0,0,185.358,75.4634,452.111)"
   id="g1"
   style="fill:#ffffff">
                <path
   d="M0.091,-0.018C0.104,-0.018 0.11,-0.024 0.11,-0.036L0.11,-0.49C0.11,-0.502 0.104,-0.508 0.091,-0.508L0.091,-0.526L0.262,-0.526L0.262,-0.508C0.257,-0.508 0.254,-0.505 0.254,-0.498C0.254,-0.493 0.261,-0.483 0.274,-0.47L0.561,-0.172L0.561,-0.49C0.561,-0.502 0.552,-0.508 0.535,-0.508L0.535,-0.526L0.686,-0.526L0.686,-0.508C0.673,-0.508 0.667,-0.502 0.667,-0.49L0.667,-0.036C0.667,-0.024 0.673,-0.018 0.686,-0.018L0.985,0.197L0.524,-0L0.524,-0.018C0.533,-0.018 0.537,-0.021 0.537,-0.027C0.537,-0.032 0.532,-0.039 0.521,-0.05L0.216,-0.368L0.216,-0.036C0.216,-0.024 0.224,-0.018 0.239,-0.018L0.239,-0L0.091,-0L0.091,-0.018Z"
   style="fill-rule:nonzero;fill:#ffffff"
   id="path1" />
            </g>
            <g
   transform="matrix(185.358,0,0,185.358,219.672,452.111)"
   id="g2"
   style="fill:#ffffff">
                <path
   d="M0.217,-0.422C0.202,-0.422 0.195,-0.417 0.195,-0.407L0.195,-0.178C0.195,-0.146 0.207,-0.12 0.23,-0.101C0.253,-0.082 0.289,-0.072 0.337,-0.072C0.385,-0.072 0.421,-0.082 0.444,-0.101C0.467,-0.12 0.479,-0.146 0.479,-0.178L0.479,-0.407C0.479,-0.417 0.471,-0.422 0.454,-0.422L0.454,-0.44L0.593,-0.44L0.593,-0.422C0.578,-0.422 0.571,-0.417 0.571,-0.407L0.571,-0.154C0.571,-0.133 0.566,-0.114 0.557,-0.095C0.548,-0.076 0.534,-0.059 0.515,-0.044C0.496,-0.029 0.471,-0.018 0.442,-0.01C0.412,-0.001 0.377,0.003 0.337,0.003C0.297,0.003 0.262,-0.001 0.233,-0.01C0.203,-0.018 0.179,-0.029 0.16,-0.044C0.14,-0.059 0.126,-0.076 0.117,-0.095C0.108,-0.114 0.103,-0.133 0.103,-0.154L0.103,-0.407C0.103,-0.412 0.101,-0.416 0.097,-0.419C0.093,-0.421 0.085,-0.422 0.074,-0.422L0.074,-0.44L0.217,-0.44L0.217,-0.422Z"
   style="fill-rule:nonzero;fill:#ffffff"
   id="path2" />
            </g>
            <g
   transform="matrix(185.358,0,0,185.358,343.306,452.111)"
   id="g3"
   style="fill:#ffffff">
                <path
   d="M0.093,-0.018C0.096,-0.019 0.099,-0.02 0.102,-0.022C0.104,-0.024 0.105,-0.029 0.105,-0.036L0.105,-0.402C0.105,-0.411 0.104,-0.417 0.103,-0.419C0.101,-0.421 0.098,-0.422 0.093,-0.422L0.093,-0.44L0.232,-0.44L0.232,-0.422C0.225,-0.422 0.222,-0.419 0.222,-0.413C0.222,-0.41 0.223,-0.407 0.226,-0.403C0.228,-0.398 0.231,-0.392 0.236,-0.384L0.358,-0.159L0.481,-0.383C0.486,-0.391 0.489,-0.398 0.492,-0.403C0.495,-0.408 0.496,-0.411 0.496,-0.413C0.496,-0.419 0.493,-0.422 0.488,-0.422L0.488,-0.44L0.629,-0.44L0.629,-0.422C0.626,-0.422 0.623,-0.421 0.62,-0.42C0.616,-0.418 0.615,-0.414 0.615,-0.409L0.615,-0.033C0.615,-0.028 0.616,-0.024 0.62,-0.022C0.623,-0.019 0.626,-0.018 0.629,-0.018L0.629,-0L0.513,-0L0.513,-0.018C0.527,-0.018 0.533,-0.023 0.531,-0.033L0.531,-0.314L0.529,-0.314L0.394,-0.031L0.453,0.076L0.349,-0.027L0.19,-0.314L0.191,-0.314L0.189,-0.314L0.189,-0.033C0.189,-0.023 0.195,-0.018 0.206,-0.018L0.206,-0L0.093,-0L0.093,-0.018Z"
   style="fill-rule:nonzero;fill:#ffffff"
   id="path3" />
            </g>
            <g
   transform="matrix(185.358,0,0,185.358,477.134,452.111)"
   id="g4"
   style="fill:#ffffff">
                <path
   d="M0.468,-0.347C0.468,-0.36 0.458,-0.366 0.437,-0.366L0.193,-0.366L0.193,-0.266L0.347,-0.266C0.358,-0.266 0.367,-0.267 0.372,-0.269C0.377,-0.27 0.38,-0.275 0.38,-0.282L0.398,-0.282L0.398,-0.176L0.378,-0.176C0.38,-0.183 0.377,-0.188 0.37,-0.19C0.363,-0.191 0.352,-0.192 0.339,-0.192L0.193,-0.192L0.193,-0.074L0.449,-0.074C0.457,-0.074 0.464,-0.076 0.469,-0.08C0.474,-0.083 0.477,-0.088 0.477,-0.094L0.495,-0.094L0.495,0.011L0.477,0.011C0.477,0.005 0.474,0.002 0.469,0.001C0.464,0 0.457,-0 0.449,-0L0.082,-0L0.082,-0.018C0.085,-0.018 0.089,-0.019 0.092,-0.022C0.095,-0.024 0.097,-0.028 0.097,-0.033L0.097,-0.407C0.097,-0.412 0.095,-0.416 0.092,-0.419C0.089,-0.421 0.085,-0.422 0.082,-0.422L0.082,-0.44L0.437,-0.44C0.458,-0.44 0.468,-0.446 0.468,-0.458L0.486,-0.458L0.486,-0.347L0.468,-0.347Z"
   style="fill-rule:nonzero;fill:#ffffff"
   id="path4" />
            </g>
            <g
   transform="matrix(185.358,0,0,185.358,580.193,452.111)"
   id="g5"
   style="fill:#ffffff">
                <path
   d="M0.081,-0.018C0.093,-0.018 0.099,-0.023 0.099,-0.033L0.099,-0.407C0.099,-0.417 0.093,-0.422 0.081,-0.422L0.034,-0.501L0.161,-0.45L0.228,-0.44L0.228,-0.422C0.223,-0.421 0.221,-0.42 0.221,-0.417C0.221,-0.414 0.228,-0.405 0.243,-0.39L0.483,-0.136L0.483,-0.407C0.483,-0.417 0.476,-0.422 0.463,-0.422L0.463,-0.44L0.585,-0.44L0.585,-0.422C0.573,-0.422 0.567,-0.417 0.567,-0.407L0.567,-0.033C0.567,-0.023 0.573,-0.018 0.585,-0.018L0.585,-0L0.455,-0L0.455,-0.018C0.46,-0.018 0.462,-0.02 0.462,-0.023C0.462,-0.026 0.459,-0.03 0.453,-0.037C0.446,-0.044 0.439,-0.051 0.431,-0.06L0.183,-0.324L0.183,-0.033C0.183,-0.023 0.19,-0.018 0.204,-0.018L0.204,-0L0.081,-0L0.081,-0.018Z"
   style="fill-rule:nonzero;fill:#ffffff"
   id="path5" />
            </g>
            <g
   transform="matrix(185.358,0,0,185.358,703.827,452.111)"
   id="g6"
   style="fill:#ffffff">
                <path
   d="M0.277,-0.508L0.168,-0.485L0.254,-0.578L0.347,-0.641L0.442,-0.632L0.354,-0.567L0.277,-0.508ZM0.468,-0.347C0.468,-0.36 0.458,-0.366 0.437,-0.366L0.193,-0.366L0.193,-0.266L0.347,-0.266C0.358,-0.266 0.367,-0.267 0.372,-0.269C0.377,-0.27 0.38,-0.275 0.38,-0.282L0.398,-0.282L0.398,-0.176L0.378,-0.176C0.38,-0.183 0.377,-0.188 0.37,-0.19C0.363,-0.191 0.352,-0.192 0.339,-0.192L0.193,-0.192L0.193,-0.074L0.449,-0.074C0.457,-0.074 0.464,-0.076 0.469,-0.08C0.474,-0.083 0.477,-0.088 0.477,-0.094L0.495,-0.094L0.495,0.011L0.477,0.011C0.477,0.005 0.474,0.002 0.469,0.001C0.464,0 0.457,-0 0.449,-0L0.082,-0L0.082,-0.018C0.085,-0.018 0.089,-0.019 0.092,-0.022C0.095,-0.024 0.097,-0.028 0.097,-0.033L0.097,-0.407C0.097,-0.412 0.095,-0.416 0.092,-0.419C0.089,-0.421 0.085,-0.422 0.082,-0.422L0.082,-0.44L0.437,-0.44C0.458,-0.44 0.468,-0.446 0.468,-0.458L0.486,-0.458L0.486,-0.347L0.468,-0.347Z"
   style="fill-rule:nonzero;fill:#ffffff"
   id="path6" />
            </g>
            <g
   transform="matrix(185.358,0,0,185.358,806.886,452.111)"
   id="g7"
   style="fill:#ffffff">
                <path
   d="M0.352,-0.25C0.417,-0.25 0.45,-0.271 0.45,-0.312C0.45,-0.329 0.442,-0.342 0.427,-0.352C0.411,-0.361 0.386,-0.366 0.352,-0.366L0.194,-0.366L0.194,-0.25L0.352,-0.25ZM0.354,-0.44C0.413,-0.44 0.46,-0.43 0.493,-0.411C0.526,-0.391 0.543,-0.357 0.543,-0.31C0.543,-0.292 0.54,-0.276 0.533,-0.262C0.526,-0.248 0.518,-0.236 0.507,-0.226C0.496,-0.215 0.483,-0.207 0.47,-0.201C0.457,-0.194 0.443,-0.189 0.429,-0.186L0.527,-0.043C0.532,-0.036 0.538,-0.03 0.545,-0.027C0.551,-0.023 0.558,-0.02 0.565,-0.018L0.741,0.104L0.412,-0L0.412,-0.018C0.421,-0.018 0.425,-0.021 0.425,-0.027C0.425,-0.034 0.42,-0.044 0.41,-0.058L0.331,-0.176L0.192,-0.176L0.192,-0.033C0.192,-0.028 0.194,-0.024 0.199,-0.022C0.203,-0.019 0.207,-0.018 0.211,-0.018L0.211,-0L0.078,-0L0.078,-0.018C0.09,-0.018 0.096,-0.023 0.096,-0.033L0.096,-0.407C0.096,-0.417 0.09,-0.422 0.078,-0.422L0.078,-0.44L0.354,-0.44Z"
   style="fill-rule:nonzero;fill:#ffffff"
   id="path7" />
            </g>
            <g
   transform="matrix(185.358,0,0,185.358,920.14,452.111)"
   id="g8"
   style="fill:#ffffff">
                <path
   d="M0.349,-0.184L0.268,-0.352L0.197,-0.184L0.349,-0.184ZM0.015,-0.018C0.023,-0.019 0.029,-0.023 0.035,-0.03C0.04,-0.036 0.043,-0.042 0.046,-0.047L0.195,-0.372C0.199,-0.381 0.202,-0.389 0.205,-0.395C0.207,-0.4 0.208,-0.406 0.208,-0.411C0.208,-0.415 0.207,-0.418 0.206,-0.419C0.204,-0.42 0.202,-0.421 0.2,-0.422L0.2,-0.44L0.351,-0.44L0.351,-0.422C0.349,-0.421 0.347,-0.42 0.345,-0.419C0.342,-0.418 0.341,-0.416 0.341,-0.411C0.341,-0.407 0.343,-0.402 0.346,-0.397C0.349,-0.391 0.352,-0.384 0.355,-0.377L0.517,-0.037C0.52,-0.031 0.524,-0.027 0.528,-0.024C0.532,-0.021 0.536,-0.019 0.541,-0.018L0.541,-0L0.399,-0L0.399,-0.015C0.402,-0.015 0.406,-0.016 0.41,-0.018C0.413,-0.02 0.415,-0.024 0.415,-0.029C0.415,-0.033 0.414,-0.037 0.413,-0.04C0.412,-0.043 0.41,-0.048 0.408,-0.053L0.381,-0.11L0.167,-0.11L0.139,-0.056C0.136,-0.051 0.134,-0.046 0.133,-0.042C0.131,-0.037 0.13,-0.033 0.13,-0.03C0.13,-0.025 0.132,-0.021 0.135,-0.02C0.138,-0.019 0.143,-0.018 0.149,-0.018L0.149,-0L0.015,-0L0.015,-0.018Z"
   style="fill-rule:nonzero;fill:#ffffff"
   id="path8" />
            </g>
        </g>
    </g>
</svg>
